X:246
T: Heiligen - Anrufung
N: A0605
O: Europa, Mitteleuropa, Deutschland
N: Haym v. Themar Schoene Christenliche Cath. Weinaecht... 1590 No. 15.
R: Romanze, Ballade, Lied, religioeses Lied
M: 4/1
L: 1/2
K: F
F2A2c2c | d2B2c4 |
ccccc2B2 | AAG2F4 |
F2G2A2c2 | G2F2D2C2 |
A2B2c2d2 | c2BBA2G2 |
FAG2F4

